X: 446
T: Xiangqinqin xiangde mile qiao
L: 1/8
M: 2/4
K: G
B> AA2 [I:setbarnb 1]| 
BA2A | 
G G E D- | 
D G E D | 
d4 | 
A A g e | 
ge2d | 
d2F G | 
A2A F | 
d2z2 |]

@@@ Tune index: 9320
